X:0304
M:C
L:1/8
Q:1/2=100
K:D
dAde (d/e/f) ed|cAeA    fAeA|dAde d/e/f ed|Ad cd/e/ ddd2 |
dAde  d/e/f  ed|edef    gfef|dBAG F2    dB|AFGE     FDD2:|

